X: 6396
T: Castle Kelly
R: reel
M: 4/4
K: Aminor
|:A2cA ABcA|GEEG G2EG|A2cA ABcd|ecdB cBA2|
A2cA ABcA|GEEG G2EG|A2cA ABcd|ecdB cBA2:|
|:agec d2ed|cAGE G2eg|agec d2cd|eaag a2ba|
gedc d2ed|cAGE G2EG|A2cA ABcd|ecdB cBA2:|

